packages/icons/svg/Navigation_Display_DisplayProductX4_Outline_32px.svg

<svg xmlns="http://www.w3.org/2000/svg" viewBox="0 0 32 32"><path d="M13.35 3H4.5A1.5 1.5 0 003 4.5v8.85a1.5 1.5 0 001.5 1.5h8.85a1.5 1.5 0 001.5-1.5V4.5a1.5 1.5 0 00-1.5-1.5zm-.5 9.85H5V5h7.85zM27.5 3h-8.85a1.5 1.5 0 00-1.5 1.5v8.85a1.5 1.5 0 001.5 1.5h8.85a1.5 1.5 0 001.5-1.5V4.5A1.5 1.5 0 0027.5 3zm-.5 9.85h-7.85V5H27zM13.35 17.15H4.5a1.5 1.5 0 00-1.5 1.5v8.85A1.5 1.5 0 004.5 29h8.85a1.5 1.5 0 001.5-1.5v-8.85a1.5 1.5 0 00-1.5-1.5zm-.5 9.85H5v-7.85h7.85zM27.5 17.15h-8.85a1.5 1.5 0 00-1.5 1.5v8.85a1.5 1.5 0 001.5 1.5h8.85a1.5 1.5 0 001.5-1.5v-8.85a1.5 1.5 0 00-1.5-1.5zM27 27h-7.85v-7.85H27z"/></svg>

<svg xmlns="http://www.w3.org/2000/svg" viewBox="0 0 32 32"><defs></defs><g id="Icon"><path  d="M13.35,3H4.5A1.5,1.5,0,0,0,3,4.5v8.85a1.5,1.5,0,0,0,1.5,1.5h8.85a1.5,1.5,0,0,0,1.5-1.5V4.5A1.5,1.5,0,0,0,13.35,3Zm-.5,9.85H5V5h7.85Z"/><path  d="M27.5,3H18.65a1.5,1.5,0,0,0-1.5,1.5v8.85a1.5,1.5,0,0,0,1.5,1.5H27.5a1.5,1.5,0,0,0,1.5-1.5V4.5A1.5,1.5,0,0,0,27.5,3ZM27,12.85H19.15V5H27Z"/><path  d="M13.35,17.15H4.5A1.5,1.5,0,0,0,3,18.65V27.5A1.5,1.5,0,0,0,4.5,29h8.85a1.5,1.5,0,0,0,1.5-1.5V18.65A1.5,1.5,0,0,0,13.35,17.15ZM12.85,27H5V19.15h7.85Z"/><path  d="M27.5,17.15H18.65a1.5,1.5,0,0,0-1.5,1.5V27.5a1.5,1.5,0,0,0,1.5,1.5H27.5A1.5,1.5,0,0,0,29,27.5V18.65A1.5,1.5,0,0,0,27.5,17.15ZM27,27H19.15V19.15H27Z"/></g></svg>
